X:1
T:Khvalitye imya Gospodie
T:Сергeй Рахманинов, 1910
T:Attributed to John Chrysostom, c. 349-407 AD
T:Просительная ектения и Отца и Сына
T:Литургиа Святого Иоанна Златоуста , Op. 31, No. 9
T:Public Domain
T:Public Domain
C:Sergei Rakhmanninov
Z:Public Domain
%%score [ ( 1 2 ) 3 ( 4 5 ) ( 6 7 ) ]
L:1/8
Q:1/4=70
M:3/4
K:G
V:1 treble nm="Сопрано" snm="С"
V:2 treble 
V:3 treble nm="Альт" snm="А"
V:4 treble-8 nm="Тенор" snm="Т"
V:5 treble-8 
V:6 bass nm="Бас" snm="Б"
V:7 bass 
V:1
|:!p!"^Довольно медленно\nModerately slow""^Го   –   спо–ди,  по–ми–луй.     Го   –  спо–ди,  по–ми–луй.      Го   –  спо–ди,   по –ми    –   луй.\nGo  –    spo– di,   po–mi – lui.       Go  –   spo– di,   po–mi – lui.        Go  –   spo– di,    po – mi    –     lui." !tenuto!B2- BA AA | %1
 !tenuto!A4 G2 :| !tenuto!B2- BA AA | !tenuto!A4 G2 |: B2- BA AB | !tenuto!B4 G2 :: %6
[M:4/4] z2"^По-дай,  Го–спо–ди.                 По-дай,        Го–спо–ди.                   По-дай,          Го–спо–ди.             Те–бе, \nPo–dai,   Go–spo–di.                   Po–dai,         Go–spo–di.                     Po–dai,           Go–spo–di.              Te-bye," G2 !tenuto!B4 | %7
 G3 G G4 :: z2 G2 !tenuto!B4 | G3 G G4 :: z2!<(! G2!>(! !tenuto!B4!<)!!>)! | !tenuto!G3 G G4 :| %12
 z2 E2 F4 | %13
"^Го–спо–ди.            А  –  минь.          И     ду– хо–ви Тво–е –  му,          От   –   ца           и   Сы     –       на      и    Свя –\nGo–spo–di.              A  –  min'.             I      du–kho–vi Tvo–ye–mu,          Ot    –  tsa            i    Sui    –        na       i    Svya –" G3 G G4 | %14
 z4 G4 | G8 ||[M:3/4]!p! E2 | !tenuto!F2 FG GA |!>(! (!tenuto!A2 B4)!>)! || %19
"^В том же темпе\nIn the same tempo"[Q:1/4=70]!p! [Bd] | [c_e]2- [ce][Bd] [ce]2- | %21
 [ce]2 [c_e]2 [Ac][_Bd] | %22
"^– та  – го  Ду     –    ха.       Тро–и– цу              е  – ди    –   но   –  сущ–ну–ю      и   не–раз– дель     –    ну  –  ю.\n–  ta  – vo  Du    –    kha.     Tro– i –tsu             ye – di     –    no   –  sush–nu–yu     i    ne–raz – del'        –    nu  –  yu." [_Bd]3 [Ac] [Bd]2- | %23
 [Bd]2 [_Bd]4 |!f!!>(! !tenuto!c3 c c2-!>)! | c!<(!_B [Ac][Gd] [Ac]B!<)! | %26
!>(! !tenuto!c3 c c2!>)! |!p! _B2!<(! [Ac]2 [Gd]2!<)! |!mf! !tenuto![Ac]4-!>(! [Ac]A!>)! |!p! A6 |] %30
V:2
|: x6 | x6 :| x6 | x6 |: x6 | x6 ::[M:4/4] x8 | x8 :: x8 | x8 :: x8 | x8 :| x8 | x8 | x8 | x8 || %16
[M:3/4] x2 | x6 | x6 || x | x6 | x6 | x6 | x6 | x6 | x _B x4 | x6 | x6 | x6 | x6 |] %30
V:3
|:!p! !tenuto!D2- DC CC | !tenuto!C4 B,2 :| !tenuto!D2- DC CC | !tenuto!C4 B,2 |: D2- DC CD | %5
 (!tenuto!D3 C) B,2 ::[M:4/4] z2 B,2 !tenuto!C4 | B,3 B, B,4 :: z2 B,2 (!tenuto!D3 C) | %9
 B,3 B, B,4 :: z2!<(! B,2!>(! (!tenuto!D3 C)!<)!!>)! | !tenuto!C3 B, B,4 :| z2 B,2 C4 | %13
 B,3 B, B,4 | z4 B,4 | B,8 ||[M:3/4]!p! B,2 | !tenuto!D2 DD DF |!>(! (!tenuto!F2 G4)!>)! ||!p! G | %20
 !tenuto!G2- GG !tenuto!G2- | G2 G2 =FF | =F3 F !tenuto!F2- | F2 =F4 | %24
!f!!>(! !tenuto!=F3 F F2-!>)! | F!<(!=F ED EF!<)! |!>(! !tenuto!=F3 F F2!>)! | %27
!p! =F2!<(! F2 F2!<)! |!mf! !tenuto!C4-!>(! C=F!>)! |!p! =F6 |] %30
V:4
|:!p!"^Го   –   спо–ди,  по–ми–луй.     Го   –  спо–ди,  по–ми–луй.      Го   –  спо–ди,   по –ми    –   луй.\nGo  –    spo– di,   po–mi – lui.       Go  –   spo– di,   po–mi – lui.        Go  –   spo– di,    po – mi    –     lui." !tenuto!E2- EF FF | %1
 !tenuto!F4 D2 :| !tenuto!=F2- FE EE | !tenuto!F4 D2 |: !tenuto!=F2- FE E^F | !tenuto!F4 D2 :: %6
[M:4/4] z2"^По-дай,  Го–спо–ди.                 По-дай,        Го–спо–ди.                   По-дай,          Го–спо–ди.             Те–бе, \nPo–dai,   Go–spo–di.                   Po–dai,         Go–spo–di.                     Po–dai,           Go–spo–di.              Te-bye," D2 !tenuto!E4 | %7
 D3 D D4 :: z2 D2 !tenuto!E4 | D3 D D4 :: z2!<(! E2!>(! (!tenuto!=F3 E)!<)!!>)! | %11
 !tenuto!E3 D D4 :| z2 G2 A4 | %13
"^Го–спо–ди.            А  –  минь.          И     ду– хо–ви Тво–е –  му,          От   –   ца           и   Сы     –       на      и    Свя –\nGo–spo–di.              A  –  min'.             I      du–kho–vi Tvo–ye–mu,          Ot    –  tsa            i    Sui    –        na       i    Svya –" D3 D D4 | %14
 z4 D4 | D8 ||[M:3/4]!p! G2 | !tenuto!A2 AG Gd |!>(! !tenuto!d6!>)! ||!p! [Gd] | %20
 !tenuto![c_e]2- [ce][Gd] !tenuto![ce]2- | [ce]2 [c_e]2 [=Fc][_Bd] | %22
"^– та  – го  Ду     –    ха.       Тро–и– цу              е  – ди    –   но   –  сущ–ну–ю      и   не–раз– дель     –    ну  –  ю.\n–  ta  – vo  Du    –    kha.     Tro– i –tsu             ye – di     –    no   –  sush–nu–yu     i    ne–raz – del'        –    nu  –  yu." !tenuto![_Bd]3 [=Fc] [Bd]2- | %23
 [Bd]2 [_Bd]4 |!f!!>(! !tenuto![Ac]3 [Ac] [Ac]2-!>)! | [Ac]!<(!d c_B cd!<)! | %26
!>(! !tenuto![Ac]3 [Ac] [Ac]2!>)! |!p! _B2!<(! A2 G2!<)! |!mf! !tenuto!A4!>(! Ac!>)! |!p! c6 |] %30
V:5
|: x6 | x6 :| x6 | x6 |: x6 | x6 ::[M:4/4] x8 | x8 :: x8 | x8 :: x8 | x8 :| x8 | x8 | x8 | x8 || %16
[M:3/4] x2 | x6 | x6 || x | x6 | x6 | x6 | x6 | x6 | x d c_B cd | x6 | x6 | x6 | x6 |] %30
V:6
|:!p! !tenuto!G,,2- G,,D, D,D, | !tenuto!D,4 G,,2 :| !tenuto!A,,2- A,,C, C,C, | !tenuto!D,4 G,,2 |: %4
 !tenuto!D,2- D,A,, A,,D, | !tenuto!D,4 G,,2 ::[M:4/4] z2 G,,2 !tenuto!G,,4 | G,,3 G,, G,,4 :: %8
 z2 G,,2 !tenuto!G,,4 | !tenuto!G,,3 G,, G,,4 :: z2!<(! G,,2!>(! !tenuto!G,,4!<)!!>)! | %11
 !tenuto!G,,3 G,, G,,4 :| z2 E,2 D,4 | [G,,D,]3 [G,,D,] [G,,D,]4 | z4 [G,,D,]4 | [G,,D,]8 || %16
[M:3/4]!p! E,2 | !tenuto!D,2 D,B,, B,,D, |!>(! (!tenuto!D,2 G,4)!>)! || z | z6 | z6 | z6 | z6 | %24
!f!!>(! !tenuto!C,3 C, C,2-!>)! | C,!<(!D, E,=F, E,D,!<)! |!>(! !tenuto!C,3 C, C,2!>)! | %27
!p! [=F,,D,]2!<(! [F,,C,]2 [F,,_B,,]2!<)! |!mf! !tenuto![=F,,C,]4-!>(! [F,,C,]=F,!>)! |!p! =F,6 |] %30
V:7
|: x6 | x6 :| x6 | x6 |: x6 | x6 ::[M:4/4] x8 | x8 :: x8 | x8 :: x8 | x8 :| x8 | x8 | x8 | x8 || %16
[M:3/4] x2 | x6 | x6 || x | x6 | x6 | x6 | x6 | =F,,4 F,,2- | F,,6 | =F,,4 F,,2 | x6 | x4 x =F, | %29
 x6 |] %30

